img/icon-job.svg

<svg width="48" height="43" viewBox="0 0 48 43" fill="none" xmlns="http://www.w3.org/2000/svg">
<path d="M44.5848 15.5159C44.4993 15.4304 44.4124 15.347 44.3247 15.2645V12.5625C44.3247 9.87575 42.1388 7.68988 39.4521 7.68988H30.905V5.24113C30.905 2.62681 28.7781 0.5 26.1638 0.5H18.1611C15.5468 0.5 13.4199 2.62681 13.4199 5.24113V7.68988H4.87266C2.18587 7.68988 0 9.87575 0 12.5625V34.2517C0 36.9385 2.18587 39.1243 4.87266 39.1243H15.046C15.4343 39.1243 15.7492 38.8095 15.7492 38.4212C15.7492 38.0329 15.4343 37.7181 15.046 37.7181H4.87266C2.96119 37.7181 1.40616 36.1631 1.40616 34.2516V20.0672C2.78297 22.1095 5.04778 23.5057 7.64231 23.698V26.2579C7.64231 27.7199 8.83181 28.9094 10.2938 28.9094C11.756 28.9094 12.9455 27.7199 12.9455 26.2579V23.7209H24.6951C24.6951 23.7322 24.6947 23.7433 24.6947 23.7546C24.6947 26.1489 25.4127 28.4325 26.7457 30.3609L25.253 31.8536C24.7317 31.7061 24.1477 31.8363 23.7382 32.2459L18.0046 37.9796C16.8697 39.1145 16.8697 40.9612 18.0046 42.0961C19.1422 43.2337 20.9835 43.2339 22.1212 42.0961L27.8548 36.3625C28.2643 35.953 28.3946 35.369 28.2472 34.8478L29.7412 33.3538C33.6921 36.0748 38.9586 36.0835 42.9187 33.3758V34.2517C42.9187 36.1632 41.3636 37.7182 39.4522 37.7182H28.3462C27.9578 37.7182 27.643 38.033 27.643 38.4213C27.643 38.8096 27.9578 39.1244 28.3462 39.1244H39.4521C42.1388 39.1244 44.3247 36.9386 44.3247 34.2518V32.2449C44.4123 32.1626 44.4992 32.0791 44.5848 31.9935C49.1381 27.4402 49.1387 20.0698 44.5848 15.5159ZM14.826 5.24113C14.826 3.40222 16.3221 1.90616 18.161 1.90616H26.1637C28.0027 1.90616 29.4987 3.40222 29.4987 5.24113V7.68988H27.9988V5.24113C27.9988 4.22928 27.1756 3.40606 26.1637 3.40606H18.161C17.1491 3.40606 16.3259 4.22928 16.3259 5.24113V7.68988H14.826V5.24113ZM17.7321 7.68988V5.24113C17.7321 5.00469 17.9244 4.81231 18.161 4.81231H26.1637C26.4003 4.81231 26.5927 5.00469 26.5927 5.24113V7.68988H17.7321ZM11.5393 24.0968H9.04856V21.7298C9.04856 21.0431 9.60722 20.4844 10.2939 20.4844C10.9807 20.4844 11.5393 21.0431 11.5393 21.7298V24.0968ZM10.2939 27.5034C9.60722 27.5034 9.04856 26.9447 9.04856 26.258V25.5029H11.5393V26.258C11.5393 26.9447 10.9807 27.5034 10.2939 27.5034ZM12.9455 22.3149V21.7298C12.9455 20.2677 11.756 19.0783 10.2938 19.0783C8.83181 19.0783 7.64231 20.2677 7.64231 21.7298V22.2858C4.15172 21.9731 1.40616 19.0331 1.40616 15.4625V12.5625C1.40616 10.6511 2.96119 9.09603 4.87266 9.09603H39.4521C41.3635 9.09603 42.9186 10.6511 42.9186 12.5625V14.1311C38.4725 11.0807 32.2096 11.4134 28.1073 15.5158C26.2496 17.3734 25.0966 19.7478 24.7822 22.3148H12.9455V22.3149ZM21.1268 41.1019C20.5387 41.6899 19.5869 41.69 18.9988 41.1019C18.7146 40.8177 18.5581 40.4398 18.5581 40.0379C18.5581 39.636 18.7146 39.2581 18.9988 38.974L22.9709 35.0019L25.0988 37.1298L21.1268 41.1019ZM26.8604 35.3683L26.0932 36.1355L23.9652 34.0076L24.7325 33.2403C24.7595 33.2134 24.7948 33.1999 24.8302 33.1999C24.8655 33.1999 24.9008 33.2134 24.9277 33.2402C24.9279 33.2403 24.928 33.2405 24.9282 33.2406L26.8604 35.1728C26.9142 35.2267 26.9142 35.3143 26.8604 35.3683ZM27.3912 33.715L26.3857 32.7094L27.6201 31.475C27.7768 31.6517 27.9388 31.825 28.1073 31.9933C28.2761 32.1622 28.4494 32.324 28.6258 32.4803L27.3912 33.715ZM29.1016 30.9991C27.1665 29.0641 26.1008 26.4913 26.1008 23.7547C26.1008 21.0181 27.1665 18.4453 29.1016 16.5103C33.1053 12.5065 39.5862 12.5059 43.5905 16.5103C47.5942 20.5139 47.5948 26.9949 43.5905 30.9991C39.5866 35.003 33.1058 35.0035 29.1016 30.9991Z" fill="url(#paint0_linear)"/>
<path d="M44.0595 24.7202C43.6801 24.6377 43.3055 24.8783 43.2231 25.2578C42.937 26.5735 42.28 27.7748 41.323 28.7318C38.5722 31.4824 34.1199 31.4827 31.3689 28.7318C28.6246 25.9874 28.6246 21.5221 31.3689 18.7778C34.1197 16.0271 38.572 16.0268 41.323 18.7778C42.2789 19.7337 42.9357 20.9337 43.2223 22.248C43.305 22.6274 43.6797 22.8683 44.0591 22.7852C44.4385 22.7025 44.6789 22.3279 44.5962 21.9485C44.2522 20.3705 43.4641 18.9303 42.3174 17.7835C39.0171 14.4832 33.6754 14.4828 30.3747 17.7835C27.0821 21.076 27.0821 26.4335 30.3747 29.7261C33.6672 33.0186 39.0246 33.0187 42.3174 29.7261C43.4653 28.5781 44.2537 27.1363 44.5972 25.5566C44.6796 25.1772 44.4389 24.8028 44.0595 24.7202Z" fill="url(#paint1_linear)"/>
<path d="M34.1146 26.8148C34.0365 26.9165 33.9957 27.0473 34.0004 27.1811C34.005 27.3149 34.0547 27.4418 34.1396 27.5365C34.2245 27.6312 34.3384 27.6866 34.4583 27.6918C34.5783 27.697 34.6956 27.6515 34.7868 27.5644C35.0083 27.3168 35.2713 27.1204 35.5609 26.9864C35.8505 26.8524 36.161 26.7835 36.4745 26.7835C36.788 26.7835 37.0985 26.8524 37.3881 26.9864C37.6777 27.1204 37.9407 27.3168 38.1621 27.5644C38.2502 27.6645 38.3701 27.7219 38.4959 27.7239C38.5926 27.7301 38.6887 27.7033 38.7714 27.647C38.8542 27.5908 38.9196 27.5078 38.9589 27.409C38.9983 27.3103 39.0097 27.2005 38.9917 27.0944C38.9737 26.9882 38.9271 26.8907 38.8582 26.8148C38.5483 26.4692 38.1804 26.1951 37.7755 26.008C37.3706 25.821 36.9366 25.7247 36.4983 25.7247C36.0601 25.7247 35.6261 25.821 35.2212 26.008C34.8163 26.1951 34.4484 26.4692 34.1385 26.8148H34.1146Z" fill="url(#paint2_linear)"/>
<path d="M40.9467 19.9982C40.8867 19.8803 40.7825 19.791 40.6568 19.7497C40.5311 19.7084 40.3942 19.7186 40.2759 19.778L38.2735 20.7789C38.1556 20.8389 38.0663 20.9431 38.025 21.0687C37.9837 21.1944 37.9939 21.3313 38.0533 21.4495C38.0949 21.532 38.1585 21.6014 38.2371 21.65C38.3158 21.6986 38.4063 21.7244 38.4988 21.7247C38.5773 21.7256 38.6548 21.7067 38.7241 21.6696L40.7265 20.6688C40.8444 20.6088 40.9337 20.5045 40.975 20.3789C41.0163 20.2532 41.0061 20.1164 40.9467 19.9982Z" fill="url(#paint3_linear)"/>
<path d="M39.5 23.7247C39.7761 23.7247 40 23.5009 40 23.2247C40 22.9486 39.7761 22.7247 39.5 22.7247C39.2239 22.7247 39 22.9486 39 23.2247C39 23.5009 39.2239 23.7247 39.5 23.7247Z" fill="url(#paint4_linear)"/>
<path d="M34.7296 20.7875L32.75 19.7957C32.6917 19.7606 32.6268 19.7378 32.5593 19.729C32.4919 19.7201 32.4233 19.7252 32.3579 19.7441C32.2925 19.763 32.2317 19.7952 32.1793 19.8387C32.1269 19.8822 32.084 19.936 32.0532 19.9969C32.0225 20.0577 32.0047 20.1243 32.0008 20.1923C31.9969 20.2604 32.0071 20.3286 32.0307 20.3925C32.0543 20.4565 32.0908 20.5149 32.1379 20.5641C32.1851 20.6133 32.2418 20.6522 32.3046 20.6784L34.2842 21.6702C34.3527 21.7069 34.4293 21.7256 34.5069 21.7247C34.5983 21.7244 34.6878 21.6988 34.7656 21.6507C34.8433 21.6025 34.9062 21.5337 34.9474 21.452C35.0061 21.3349 35.0161 21.1992 34.9753 21.0747C34.9345 20.9502 34.8462 20.8469 34.7296 20.7875Z" fill="url(#paint5_linear)"/>
<path d="M33.5 23.7247C33.7761 23.7247 34 23.5009 34 23.2247C34 22.9486 33.7761 22.7247 33.5 22.7247C33.2239 22.7247 33 22.9486 33 23.2247C33 23.5009 33.2239 23.7247 33.5 23.7247Z" fill="url(#paint6_linear)"/>
<defs>
<linearGradient id="paint0_linear" x1="24" y1="0.5" x2="24" y2="42.9494" gradientUnits="userSpaceOnUse">
<stop stop-color="#C45ED3"/>
<stop offset="1" stop-color="#FBA2B8"/>
</linearGradient>
<linearGradient id="paint1_linear" x1="36.2593" y1="15.3081" x2="36.2593" y2="32.1955" gradientUnits="userSpaceOnUse">
<stop stop-color="#C45ED3"/>
<stop offset="1" stop-color="#FBA2B8"/>
</linearGradient>
<linearGradient id="paint2_linear" x1="36.5" y1="25.7247" x2="36.5" y2="27.7247" gradientUnits="userSpaceOnUse">
<stop stop-color="#C762D3"/>
<stop offset="1" stop-color="#FBA2B8"/>
</linearGradient>
<linearGradient id="paint3_linear" x1="39.5" y1="19.7247" x2="39.5" y2="21.7247" gradientUnits="userSpaceOnUse">
<stop stop-color="#C762D3"/>
<stop offset="1" stop-color="#FBA2B8"/>
</linearGradient>
<linearGradient id="paint4_linear" x1="39.5" y1="22.7247" x2="39.5" y2="23.7247" gradientUnits="userSpaceOnUse">
<stop stop-color="#C762D3"/>
<stop offset="1" stop-color="#FBA2B8"/>
</linearGradient>
<linearGradient id="paint5_linear" x1="33.5" y1="19.7247" x2="33.5" y2="21.7247" gradientUnits="userSpaceOnUse">
<stop stop-color="#C762D3"/>
<stop offset="1" stop-color="#FBA2B8"/>
</linearGradient>
<linearGradient id="paint6_linear" x1="33.5" y1="22.7247" x2="33.5" y2="23.7247" gradientUnits="userSpaceOnUse">
<stop stop-color="#C762D3"/>
<stop offset="1" stop-color="#FBA2B8"/>
</linearGradient>
</defs>
</svg>

<svg xmlns="http://www.w3.org/2000/svg" xmlns:xlink="http://www.w3.org/1999/xlink" width="48" height="43" fill="none"  ><path d="M44.585 15.516l-.26-.251v-2.702a4.88 4.88 0 0 0-4.873-4.873h-8.547V5.241A4.75 4.75 0 0 0 26.164.5h-8.003a4.75 4.75 0 0 0-4.741 4.741V7.69H4.873A4.88 4.88 0 0 0 0 12.563v21.689a4.88 4.88 0 0 0 4.873 4.873h10.173c.388 0 .703-.315.703-.703s-.315-.703-.703-.703H4.873a3.47 3.47 0 0 1-3.466-3.466V20.067c1.377 2.042 3.642 3.439 6.236 3.631v2.56c0 1.462 1.19 2.652 2.651 2.652s2.652-1.19 2.652-2.652v-2.537h11.75v.034c0 2.394.718 4.678 2.051 6.606l-1.493 1.493c-.521-.148-1.105-.017-1.515.392l-5.734 5.734c-1.135 1.135-1.135 2.982 0 4.117a2.91 2.91 0 0 0 4.117 0l5.734-5.734c.409-.409.54-.993.392-1.515l1.494-1.494a11.68 11.68 0 0 0 13.178.022v.876a3.47 3.47 0 0 1-3.467 3.467H28.346c-.388 0-.703.315-.703.703s.315.703.703.703h11.106a4.88 4.88 0 0 0 4.873-4.873v-2.007l.26-.251a11.65 11.65 0 0 0 0-16.478zM14.826 5.241a3.34 3.34 0 0 1 3.335-3.335h8.003a3.34 3.34 0 0 1 3.335 3.335V7.69h-1.5V5.241a1.84 1.84 0 0 0-1.835-1.835h-8.003a1.84 1.84 0 0 0-1.835 1.835V7.69h-1.5V5.241zm2.906 2.449V5.241a.43.43 0 0 1 .429-.429h8.003a.43.43 0 0 1 .429.429V7.69h-8.861zm-6.193 16.407H9.049V21.73c0-.687.559-1.245 1.245-1.245s1.245.559 1.245 1.245v2.367zm-1.245 3.407c-.687 0-1.245-.559-1.245-1.245v-.755h2.491v.755c0 .687-.559 1.245-1.245 1.245zm2.652-5.188v-.585c0-1.462-1.189-2.652-2.652-2.652s-2.651 1.189-2.651 2.652v.556c-3.491-.313-6.236-3.253-6.236-6.823v-2.9a3.47 3.47 0 0 1 3.467-3.466h34.579a3.47 3.47 0 0 1 3.466 3.466v1.569c-4.446-3.05-10.709-2.718-14.811 1.385-1.858 1.858-3.011 4.232-3.325 6.799H12.946zm8.181 18.787c-.588.588-1.54.588-2.128 0-.284-.284-.441-.662-.441-1.064s.157-.78.441-1.064l3.972-3.972 2.128 2.128-3.972 3.972zm5.734-5.734l-.767.767-2.128-2.128.767-.767c.027-.027.062-.04.098-.04s.071.014.098.04l1.933 1.933c.054.054.054.142 0 .195zm.531-1.653l-1.006-1.006 1.234-1.234c.157.177.319.35.487.518s.342.331.519.487l-1.235 1.235zm1.71-2.716c-1.935-1.935-3.001-4.508-3.001-7.244s1.066-5.309 3.001-7.244a10.24 10.24 0 1 1 14.489 14.489 10.24 10.24 0 0 1-14.489 0z" fill="url(#A)"/><path d="M44.06 24.72c-.379-.082-.754.158-.836.538-.286 1.316-.943 2.517-1.9 3.474-2.751 2.751-7.203 2.751-9.954 0a7.05 7.05 0 0 1 0-9.954c2.751-2.751 7.203-2.751 9.954 0 .956.956 1.613 2.156 1.899 3.47.083.379.457.62.837.537s.62-.457.537-.837c-.344-1.578-1.132-3.018-2.279-4.165a8.44 8.44 0 0 0-11.943 0c-3.293 3.293-3.293 8.65 0 11.943s8.65 3.293 11.943 0c1.148-1.148 1.936-2.59 2.28-4.169.082-.379-.158-.754-.538-.836z" fill="url(#B)"/><path d="M34.115 26.815a.57.57 0 0 0-.114.366.56.56 0 0 0 .139.355c.085.095.199.15.319.155s.237-.04.328-.127c.221-.248.484-.444.774-.578a2.17 2.17 0 0 1 1.827 0c.29.134.553.33.774.578.088.1.208.158.334.16a.44.44 0 0 0 .276-.077c.083-.056.148-.139.188-.238s.051-.208.033-.315-.065-.204-.134-.28a3.34 3.34 0 0 0-1.083-.807 3.04 3.04 0 0 0-2.554 0 3.34 3.34 0 0 0-1.083.807h-.024z" fill="url(#C)"/><path d="M40.947 19.998a.5.5 0 0 0-.671-.22l-2.002 1.001a.5.5 0 0 0-.22.671.5.5 0 0 0 .446.275c.078.001.156-.018.225-.055l2.002-1.001a.5.5 0 0 0 .22-.671z" fill="url(#D)"/><path d="M39.5 23.725a.5.5 0 1 0 0-1 .5.5 0 1 0 0 1z" fill="url(#E)"/><path d="M34.73 20.788l-1.98-.992c-.058-.035-.123-.058-.191-.067s-.136-.004-.201.015-.126.051-.179.095-.095.097-.126.158-.048.127-.052.195.006.136.03.2.06.122.107.172.104.088.167.114l1.98.992a.46.46 0 0 0 .223.054c.091 0 .181-.026.259-.074s.141-.117.182-.199c.059-.117.069-.253.028-.377s-.129-.228-.246-.287z" fill="url(#F)"/><path d="M33.5 23.725a.5.5 0 1 0 0-1 .5.5 0 1 0 0 1z" fill="url(#G)"/><defs><linearGradient id="A" x1="24" y1=".5" x2="24" y2="42.949" xlink:href="#H"><stop stop-color="#c45ed3"/><stop offset="1" stop-color="#fba2b8"/></linearGradient><linearGradient id="B" x1="36.259" y1="15.308" x2="36.259" y2="32.196" xlink:href="#H"><stop stop-color="#c45ed3"/><stop offset="1" stop-color="#fba2b8"/></linearGradient><linearGradient id="C" x1="36.5" y1="25.725" x2="36.5" y2="27.725" xlink:href="#H"><stop stop-color="#c762d3"/><stop offset="1" stop-color="#fba2b8"/></linearGradient><linearGradient id="D" x1="39.5" y1="19.725" x2="39.5" y2="21.725" xlink:href="#H"><stop stop-color="#c762d3"/><stop offset="1" stop-color="#fba2b8"/></linearGradient><linearGradient id="E" x1="39.5" y1="22.725" x2="39.5" y2="23.725" xlink:href="#H"><stop stop-color="#c762d3"/><stop offset="1" stop-color="#fba2b8"/></linearGradient><linearGradient id="F" x1="33.5" y1="19.725" x2="33.5" y2="21.725" xlink:href="#H"><stop stop-color="#c762d3"/><stop offset="1" stop-color="#fba2b8"/></linearGradient><linearGradient id="G" x1="33.5" y1="22.725" x2="33.5" y2="23.725" xlink:href="#H"><stop stop-color="#c762d3"/><stop offset="1" stop-color="#fba2b8"/></linearGradient><linearGradient id="H" gradientUnits="userSpaceOnUse"/></defs></svg>
